X:1
T:Amhr\'an Na Leabhar
T:The Song of the Books
T:Cuan Bh\'eil Inse
T:Valentia Harbour
M:4/4
L:1/8
S:Paul Burgess <pburgess:blueyonder.co.uk> tradtunes 2009-3-30
Z:transcribed by Paul de Grae
K:Edor
B2 |\
E2 EF G2 A2 | Be (e4 e)f | e3 d B3 A | Bc d4 e2 |\
E3 F G3 F | GA B3 B2 A | G2 (E4 E)D | (E4 E)z B2 |
E3 F G2 A2 | B(e3 e4) | e3d B3A | Bc (d4 d)z |\
E2 EF G3 F | GA B3 B2 A | G2 F E4 D | (E4 E)z e2 |
e2 ed e3 d | ef g4 f2 | e3 d B3 A | (B4 B)z Bc |\
d2 dc d3 c | dd e4  ed | B3 A G3 A | (B4 B)z B2 |
E2 EF G2 A2 | Be e4 ef | e3 d B3 A | Bc (d4 d)e |\
E2 EF G3 F | GA B4  BA | G2 F E4 D | E6 ||
